!!!OTL: ES WOLLT EIN MAEDCHEN BRECHEN GEHN
!!!ARE: Europa, Mitteleuropa, Deutschland
!!!SCT: Z0071
!!!YEM: Copyright 1995, estate of Helmut Schaffrath.
**kern
*ICvox
*Ivox
*M2/4
*k[b-]
*F:
{8c
=1
8f
8f
8f
8f
=2
8a
8f
8f}
{8f
=3
8cc
8f
8f
8f
=4
4g
8f}
{8c
=5
8f
8f
8f
8f
=6
8a
8f
8f}
{8f
=7
8cc
8f
8f
8f
=8
4g
8f}
{8f
=9
8b-
8b-
8b-
8b-
=10
8dd
8b-
8b-}
{8b-
=11
8b-
8g
8g
8g
=12
4cc
8c}
{8c
=13
8f
8f
8f
8f
=14
8a
8f
8f}
{8f
=15
8ff
8f
8f
8f
=16
4g
8f}
==
!!!AGN: Sagen - Lied, Romanze
!!!ONB: ESAC (Essen Associative Code) Database: ZUCCAL
!!!AMT: simple duple
!!!AIN: vox
!!!EED: Helmut Schaffrath
!!!EEV: 1.0
*-
